X:1
T:Selden, SM
T:Selden, SM
T:Anonymous, 1855
T:Public Domain Courtesy of the Cyber Hymnal™
C:Anonymous, 1855
Z:Public Domain
Z:Courtesy of the Cyber Hymnal™
%%score ( 1 2 ) 3
L:1/8
Q:1/4=97
M:3/4
K:F
V:1 treble 
V:2 treble 
V:3 bass 
V:1
 [FA]2 | [EG]2 F2 [Fe][Fd] | [Ec]4 [EB]2 | [FA][_EA] [DA]2 [DG]2 | !fermata![^CA]3 [EB] [EB][FB] | %5
 [GB]3 [FA] [GA][FA] | !fermata![Ff]3 [F=B] [Fc][Fc] | [Ec]4 [CE]2 | [CF]4 |] %9
V:2
 x2 | x2 F2 x2 | x6 | x6 | x6 | x6 | x6 | x6 | x4 |] %9
V:3
 [F,C]2 | [F,B,]2 [F,A,]2 [B,,B,][B,,B,] | [C,G,]4 [^C,G,]2 | [D,F,][D,F,] [B,,F,]2 [B,,F,]2 | %4
 [A,,A,]3 [G,,C] [G,C][F,C] | [E,C]3 [F,C] [E,^C][D,D] | !fermata![_D,_A,]3 [D,A,] [C,=A,][C,_A,] | %7
 [C,G,]4 [C,B,]2 | [F,,A,]4 |] %9

